**kern	**kern	**dynam
*part1	*part1	*part1
*staff2	*staff1	*
*I"Piano	*	*
*clefF4	*clefG2	*
*k[]	*k[]	*
=1	=1	=1
8AAA 8AA	8c#X 8a	.
8r	8r	.
8qg#X/	8qgg#X/	f
8a'	8aa'^	.
8.AL	8.aL	.
16BK	16bK	.
8c#XJ	8cc#XJ	.
=	=	=
8.dL	8.ddL	.
16eK	16eeK	.
8fJ	8ffJ	.
(4.A 4.e	(4.g#X^ 4.b [4.ee	.
=	=	=
8AA')	8a) 8cc#X 8ee]	.
8r	8r	.
8qg#X/	8qgg#X/	.
8a'	8aa'^	.
8.AL	8.aL	.
16BK	16bK	.
8c#XJ	8cc#J	.
=	=	=
8.dL	8.ddL	.
16eK	16eeK	.
8fJ	8ffJ	.
(4.A 4.e	(4.g#X^ 4.b [4.ee	.
=	=	=
8AA')	8a') 8cc#X 8ee]	.
8r	8r	.
8r	8r	.
(4.A 4.e	(4.g#X^ 4.b [4.ee	.
=	=	=
8AA')	8a') 8cc#X 8ee]	.
8r	8r	.
8r	8r	.
(4.A 4.e	(4.g^ 4.b [4.ee	.
=	=	=
8AA')	8a') 8cc#X 8ee]	.
8r	8r	.
8r	8r	.
8AAA' 8AA	8a' 8cc# 8ee 8aa	sf
==	==	==
*-	*-	*-
!!!system-decoration: {(s1,s2)}
